!!!!SEGMENT: pl-sa--86-a-ii-26--001-006_pych-leopold--missa-brevis-in-d-dona.krn
!!!cenid: 17xx:372
!!!COM: Pych, Leopold
!!!COM-rismID: pe30018039
!!!CDT: <1758->1774
!!!CNT:
!!!OPR: Missa brevis in D
!!!OTL: Dona
!!!OMV: 006
!!!PDT:
!!!AGN: Sacred; Mass
!!!YEC: Copyright 2022 Narodowy Instytut Fryderyka Chopina (https://polishscores.org)
!!!YEM: License CC-BY-4.0 (https://creativecommons.org/licenses/by/4.0)
!!!SMS-siglum: PL-SA
!!!SMS-shelfmark: 86/A II 26
!!!SMS-shelfwork: 001-006 M
!!!NIFC-rismSourceID: 1001035464
!!!NIFC-rismChildID: 1001035464
!!!NIFC-islandoraID: none
!!!URL-pdf-islandora:
!!!URL-scan: https://bc.bdsandomierz.pl/dlibra/publication/1364/edition/1332/content @EN{Scan in the Sandomierz Diocese Digital Library} @PL{Skany w portalu Cyfrowa Biblioteka Diecezjalna w Sandomierzu}
!!!IIIF:
!!!ONB-nifc: UWAGA: części Mszy: Kyrie, Gloria, Credo, Sanctus, Agnus, Dona
!!!AIN: 1 bass 2 clrno 1 organ 1 soprn 2 violn
!!!OMD:
!!!OMD-mod: Allegro
!!!key: D
**kern	**fba	**kern	**kern	**kern	**text	**kern	**text	**kern	**kern
*part7	*part7	*part6	*part5	*part4	*part4	*part3	*part3	*part2	*part1
*staff7	*staff7	*staff6	*staff5	*staff4	*staff4	*staff3	*staff3	*staff2	*staff1
*I"Organo	*	*I"Violino 2do	*I"Violino 1mo	*I"Baſso	*	*I"Canto	*	*I"Clarino 2do ex D	*I"Clarino 1mo ex D
*	*	*mI"Violino II	*mI"Violino I	*mI"Basso	*	*mI"Soprano	*	*mI"Clarino II in D	*mI"Clarino I in D
*I'org	*	*I'vl 2	*I'vl 1	*I'B	*	*I'S	*	*I'clno 2 in D	*I'clno 1 in D
*Iorgan	*	*Ivioln	*Ivioln	*Ibass	*	*Isoprn	*	*Iclrno	*Iclrno
*ICklav	*	*ICstr	*ICstr	*ICvox	*	*ICvox	*	*ICbras	*ICbras
*clefF4	*	*clefG2	*clefG2	*clefF4	*	*clefC1	*	*clefG2	*clefG2
*	*	*	*	*	*	*mclefG2	*	*	*
*	*	*	*	*	*	*	*	*ITrd-1c-2	*ITrd-1c-2
*k[f#c#]	*	*k[f#c#]	*k[c#f#]	*k[f#c#]	*	*k[c#f#]	*	*k[f#c#]	*k[f#c#]
*	*	*	*mk[f#c#]	*	*	*mk[f#c#]	*	*	*
*D:	*	*D:	*D:	*D:	*	*D:	*	*D:	*D:
*M4/4	*	*M4/4	*M4/4	*M4/4	*	*M4/4	*	*M4/4	*M4/4
*met(c)	*	*met(c)	*met(c)	*met(c)	*	*met(c)	*	*met(c)	*met(c)
*mmet(c)	*	*mmet(c)	*mmet(c)	*mmet(c)	*	*mmet(c)	*	*mmet(c)	*mmet(c)
=1	=1f	=1	=1	=1	=1	=1	=1	=1	=1
!	!	!	!LO:TX:t=P:problem=przy kluczu cc# f#	!	!	!LO:TX:t=P:problem=przy kluczu cc# f#	!	!	!
!LO:TX:a:i:rj:mod= :t=Allo	!	!LO:TX:a:i:rj:mod= :t=Allo	!LO:TX:a:i:rj:mod= :t=Allo	!LO:TX:a:i:rj:mod= :t=Allo	!	!LO:TX:a:i:rj:mod= :t=Allo	!	!LO:TX:a:i:rj:mod= :t=Allo	!LO:TX:a:i:rj:mod= :t=Allo
8d|\L	.	8dd\L	8dd\L	8d\	Do-	2r	.	2r	2r
16c#|\L	.	16cc#\L	16cc#\L	16c#\LL	-na	.	.	.	.
16B|\JJ	.	16b\JJ	16b\JJ	16B\JJ	.	.	.	.	.
8A|\L	.	8a/L	8a/L	8A\	no-	.	.	.	.
8G|\J	.	8g/J	8g/J	8G\	-bis	.	.	.	.
8F#|\L	.	8f#/L	8f#/L	8F#\	pa-	4r	.	4r	4r
8D|\J	.	8d/J	8d/J	8D\	-cem	.	.	.	.
4r	.	8r	8rdd	4r	.	8r	.	8r	8r
.	.	8dd\	8ff#\	.	.	8ff#\	Do-	8dd\	8ff#\
=2	=2	=2	=2	=2	=2	=2	=2	=2	=2
!	!	!	!	!	!	!	!LO:SIC:o=-(na)	!	!
2r	.	8cc#\L	8ee\L	2r	.	8ee\	-na	8a\L	8ee\L
*	*	*Xtuplet	*	*	*	*	*	*	*
!	!	!	!LO:TUP:a:problem=klamra łukowa	!	!	!	!	!	!
.	.	24dd\L	24ff#\L	.	.	8ff#\	pa-	8dd\	8ff#\
.	.	24cc#\	24ee\	.	.	.	.	.	.
.	.	24dd\JJ	24ff#\JJ	.	.	.	.	.	.
.	.	8ee\L	8gg\L	.	.	8gg\	-cem	8ee\	8gg\
.	.	8dd\J	8ff#\J	.	.	8ff#\	da	8dd\J	8ff#\J
8rF	.	8dd\L	8ff#\L	4r	.	8ff#\	pa-	8dd\L	8ff#\L
8A\L	.	8cc#\J	8ee\J	.	.	8ee\	-cem	8a\J	8ee\J
8B\	.	8r	8r	8r	.	8r	.	8r	8r
8c#\J	.	8ee\	8ee\	8c#\	da	8ee\	da	8a/	8ee\
!	!	!LO:LB:g=original	!	!	!	!	!	!	!
=3	=3	=3	=3	=3	=3	=3	=3	=3	=3
*	*	*	*	*	*	*	*	*2\right	*2\right
!LO:TX:t=P:problem=mixed beam	!	!	!	!	!LO:SIC:o=Pa-	!	!	!	!
8d\L	.	8ff#\	8ff#\	8d\	pa-	8ff#\	pa-	2dd\	2ff#\
8D/J	.	4dd\	4dd\	4B\	.	4dd\	.	.	.
8r	.	.	.	.	.	.	.	.	.
!LO:TX:t=P:problem=mixed beam	!	!	!	!LO:LB:g=original	!	!	!	!	!
8B\L	.	16cc#\LL	16cc#\LL	16c#\LL	.	16cc#\LL	.	.	.
.	.	16b\JJ	16b\JJ	16d\JJ	.	16dd\JJ	.	.	.
8c#\	.	8ee\	8ee\	8c#\	.	8ee\	.	2a/	2ee\
8C#/J	.	4cc#\	4cc#\	4A\	.	4cc#\	.	.	.
8r	.	.	.	.	.	.	.	.	.
8A\	.	16b\LL	16b\LL	16B\LL	.	16b\LL	.	.	.
.	.	16a\JJ	16a\JJ	16c#\JJ	.	16cc#\JJ	.	.	.
=4	=4	=4	=4	=4	=4	=4	=4	=4	=4
!	!	!	!	!	!	!	!	!LO:TX:a:i:mod= :t=8	!LO:TX:a:i:mod= :t=8
8B\L	.	8.b/L	8.dd\L	8B\	-cem	8dd\	-cem	00r	00r
8E\	7	.	.	8B\	da	8dd\	da	.	.
.	.	16b/Jk	16dd\Jk	.	.	.	.	.	.
!	!	!	!	!LO:SIC:o=8A\	!LO:SIC:o=Pa-	!	!	!	!
8E\	.	8.a/L	8cc#\L	8AL	pa-	8cc#\L	pa-	.	.
!	!	!	!	!LO:SIC:o=8G#X\	!	!	!	!	!
8E\J	.	.	8b\J	8G#J	.	8b\J	.	.	.
.	.	16g#X/Jk	.	.	.	.	.	.	.
4A\	.	16a/LL	16cc#\LL	8A\L	-cem	8cc#\L	-cem	.	.
.	.	16cc#/	16ee\	.	.	.	.	.	.
.	.	16dd/	16ff#\	8B\J	.	8dd\J	.	.	.
.	.	16b/JJ	16gg#X\JJ	.	.	.	.	.	.
8r	.	8cc#\L	8aa\L	8c#\	do-	8ee\	do-	.	.
8D\	.	8b\J	8dd\J	8B\	-na	8dd\	-na	.	.
!LO:LB:g=original	!	!	!LO:LB:g=original	!	!	!LO:LB:g=original	!	!	!
=5	=5	=5	=5	=5	=5	=5	=5	=5	=5
4E\	.	4a/	8cc#\L	8A\	no-	8cc#\	no-	.	.
.	.	.	16b\L	8D\	-bis	16b\LL	-bis	.	.
.	.	.	16a\JJ	.	.	16a\JJ	.	.	.
!	!	!	!LO:TX:t=P:problem=mixed beam	!	!LO:SIC:o=Pa-	!	!LO:SIC:o=Pa-	!	!
4EE/	.	4e/	8ee\L	4E\	pa-	4b\	pa-	.	.
.	.	.	8e/J	.	.	.	.	.	.
8AA|/L	.	8a\L	8a\L	4AA/	-cem	4a\	-cem	.	.
16BB|/L	.	16b\L	16b\L	.	.	.	.	.	.
16C#|/JJ	.	16cc#\JJ	16cc#\JJ	.	.	.	.	.	.
16D|/LL	.	16dd\LL	16dd\LL	4r	.	4r	.	.	.
16E|/	.	16ee\	16ee\	.	.	.	.	.	.
16F#|/	.	16ff#\	16ff#\	.	.	.	.	.	.
16G#X|/JJ	.	16gg#X\JJ	16gg#X\JJ	.	.	.	.	.	.
=6	=6	=6	=6	=6	=6	=6	=6	=6	=6
!LO:TX:t=P:problem=mixed beam	!	!LO:TX:t=P:problem=mixed beam	!LO:TX:t=P:problem=mixed beam	!LO:TX:a:mod= :t=3:note=łuk nad 3	!	!LO:TX:a:mod= :t=3	!	!	!
8A\L	.	8aa\L	8aa\L	0r	.	0r	.	.	.
8AA/J	.	8a/J	8a/J	.	.	.	.	.	.
4r	.	8r	8r	.	.	.	.	.	.
.	.	8cc#\	8aa\	.	.	.	.	.	.
2r	.	8b\L	8gg#X\L	.	.	.	.	.	.
!	!	!	!LO:TUP:a:problem=klamra łukowa	!	!	!	!	!	!
.	.	24cc#\L	24aa\L	.	.	.	.	.	.
.	.	24b\	24gg#\	.	.	.	.	.	.
.	.	24cc#\JJ	24aa\JJ	.	.	.	.	.	.
.	.	8dd\L	8bb\L	.	.	.	.	.	.
.	.	8cc#\J	8aa\J	.	.	.	.	.	.
*	*	*tuplet	*	*	*	*	*	*	*
=7	=7	=7	=7	=7	=7	=7	=7	=7	=7
8r	.	8cc#\L	8aa\L	.	.	.	.	.	.
!	!	!	!LO:SIC:v:o=8gg\J	!	!	!	!	!	!
16E\LL	.	8b\J	8gg#J	.	.	.	.	.	.
16D\JJ	.	.	.	.	.	.	.	.	.
8C#/L	.	8r	8r	.	.	.	.	.	.
!	!	!LO:TX:b:i:mod= :t=Cito	!	!	!	!	!	!	!
8AA/J	.	8ee\	8ee\	.	.	.	.	.	.
!	!	!LO:PB:g=original	!LO:SIC:o=(16ff#\LL	!	!	!	!	!	!
8D\L	3	16ff#\LL	16ff#LL	.	.	.	.	.	.
.	.	16dd\	16dd\	.	.	.	.	.	.
8D\	.	16cc#\	16cc#\	.	.	.	.	.	.
!	!	!	!LO:SIC:o=16dd\JJ)	!	!	!	!	!	!
.	.	16dd\JJ	16ddJJ	.	.	.	.	.	.
8D\	6	16ff#\LL	16ff#\LL	.	.	.	.	.	.
.	.	16bb\	16bb\	.	.	.	.	.	.
!	!	!	!LO:SIC:v:o=16aa\	!	!	!	!	!	!
8D\J	.	16aa#X\	16aa#	.	.	.	.	.	.
.	.	16bb\JJ	16bb\JJ	.	.	.	.	.	.
=8	=8	=8	=8	=8	=8	=8	=8	=8	=8
8E\L	.	16gg#X\LL	16gg#X\LL	1r	.	1r	.	00r	00r
.	.	16ee\	16ee\	.	.	.	.	.	.
8D\	.	16ff#\	16ff#\	.	.	.	.	.	.
.	.	16gg#\JJ	16gg#\JJ	.	.	.	.	.	.
8C#\	.	8aan\L	8aa\L	.	.	.	.	.	.
!	!	!	!LO:TX:t=P:problem=skreślona kreska taktowa	!	!	!	!	!	!
8D\J	.	8dd\J	8dd\J	.	.	.	.	.	.
4E\	.	8cc#\L	8cc#\L	.	.	.	.	.	.
.	.	16b\L	16b\L	.	.	.	.	.	.
.	.	16a\JJ	16a\JJ	.	.	.	.	.	.
!	!	!LO:TX:t=P:problem=mixed beam	!LO:TX:t=P:problem=mixed beam	!	!	!	!	!	!
4EE/	.	8ee\L	8ee\L	.	.	.	.	.	.
.	.	8e/J	8e/J	.	.	.	.	.	.
=9	=9	=9	=9	=9	=9	=9	=9	=9	=9
8A|\L	.	8aa\L	8aa\L	8A\	Do-	8aa\	Do-	.	.
!	!	!	!	!LO:SIC:o=(16G#X\LL	!	!	!	!	!
16G#X|\L	.	16gg#X\L	16gg#X\L	(16G#LL	-na	16gg#X\LL	-na	.	.
!	!	!	!	!LO:SIC:o=16F#\JJ)	!	!	!	!	!
16F#|\JJ	.	16ff#\JJ	16ff#\JJ	16F#JJ	.	16ff#\JJ	.	.	.
8E|\L	.	8ee\L	8ee\L	8E\	no-	8ee\	no-	.	.
8D|\J	.	8dd\J	8dd\J	8D\	-bis	8dd\	-bis	.	.
!	!	!	!LO:TX:t=P:problem=zbędna kreska taktowa	!	!	!	!	!	!
!	!	!	!LO:LB:g=original	!	!	!	!	!	!
8C#|>/L	.	8cc#\L	8cc#\L	8C#/	pa-	8cc#\	pa-	.	.
16AA/L	.	8a\J	8a\J	8AA/	-cem	8a\	-cem	.	.
16BB/JJ	.	.	.	.	.	.	.	.	.
8C#/L	.	8r	8r	8r	.	8r	.	.	.
!	!	!	!	!	!LO:SIC:v:o=do-	!	!	!	!
8AA/J	.	8a/	8cc#\	8A\	da	8cc#\	da	.	.
=10	=10	=10	=10	=10	=10	=10	=10	=10	=10
!	!	!	!	!LO:SIC:v:o=4G\	!LO:SIC:v:o=-na	!	!	!	!
8E\L	7	4g#X/	4b\	4G#	pa-	4b\	pa-	.	.
8E\	.	.	.	.	.	.	.	.	.
!	!	!	!	!	!LO:SIC:v:o=no-	!	!	!	!
8E\	.	8a/L	8cc#\L	8A\L	-cem	8cc#\	-cem	.	.
!	!	!	!	!	!LO:MO:mod=.	!	!	!	!
8E\J	.	8b/J	8dd\J	8B\J	-bis	8dd\	da	.	.
!	!	!	!	!LO:LB:g=original	!	!	!	!	!
!LO:TX:t=P:problem=mixed beam	!	!	!	!	!	!	!	!	!
8A\L	.	8a/L	16cc#\LL	8A\	pa-	8cc#\	pa-	.	.
.	.	.	16a\	.	.	.	.	.	.
8AA/	.	8cc#/J	16cc#\	8c#\	-cem	8ee\	-cem	.	.
.	.	.	16ee\JJ	.	.	.	.	.	.
8C#/	.	8cc#/L	8aa\L	8r	.	8r	.	.	.
!	!	!	!	!	!LO:SIC:v:o=do-	!	!	!	!
8AA/J	.	8a/J	8cc#\J	8A\	da	8cc#\	da	.	.
=11	=11	=11	=11	=11	=11	=11	=11	=11	=11
!	!	!LO:SIC:v:o=4g/	!	!LO:SIC:v:o=8G\	!LO:SIC:v:o=-na	!	!	!	!
8E\L	7	4g#	4b\	8G#	pa-	8b\	pa-	.	.
!	!	!	!	!LO:SIC:v:o=8G\	!LO:SIC:v:o=no-	!	!	!	!
8E\	.	.	.	8G#	-cem	8b\	-cem	.	.
!	!	!	!	!LO:SIC:o=(8A\L	!LO:SIC:v:o=-bis	!	!	!	!
8E\	.	8a/L	8cc#\L	8AL	pa-	8cc#\L	pa-	.	.
!	!	!	!	!LO:SIC:o=8B\J)	!LO:MO:mod=.	!	!	!	!
8E\J	.	8b/J	8dd\J	8BJ	pa-	8dd\J	.	.	.
!LO:TX:t=P:problem=mixed beam	!	!	!	!	!	!	!	!	!
8A\L	.	4a/	16cc#\LL	4A\	-cem	4cc#\	-cem	.	.
.	.	.	16b\J	.	.	.	.	.	.
8E\	.	.	8a\J	.	.	.	.	.	.
!	!	!	!	!	!	!LO:LB:g=original	!	!	!
8C#/	.	8r	8r	8r	.	8r	.	.	.
8AA/J	.	8a/	8a/	8A\	da	8a\	da	.	.
!	!	!LO:LB:g=original	!	!	!	!	!	!	!
=12	=12	=12	=12	=12	=12	=12	=12	=12	=12
8AA/L	7 x	16ee\LL	16gg\LL	4c#\	pa-	4ee\	pa-	4ee\	4gg\
.	.	16ee\	16gg\	.	.	.	.	.	.
8AA/	.	16cc#\	16ee\	.	.	.	.	.	.
.	.	16cc#\JJ	16ee\JJ	.	.	.	.	.	.
8AA/	.	4a/	16cc#\LL	4c#\	-cem	4ee\	-cem	4a/	4ee\
.	.	.	16cc#\	.	.	.	.	.	.
8AA/J	.	.	16a\	.	.	.	.	.	.
.	.	.	16a\JJ	.	.	.	.	.	.
*	*	*	*	*2\right	*	*2\right	*	*	*
!LO:LB:g=original	!	!	!	!	!	!	!	!	!
8AA/L	6 4	16ff#\LL	16aa\LL	2d\	pa-	2ff#\	pa-	4ff#\	4aa\
.	.	16ff#\	16aa\	.	.	.	.	.	.
8AA/	.	16dd\	16ff#\	.	.	.	.	.	.
.	.	16dd\JJ	16ff#\JJ	.	.	.	.	.	.
8AA/	.	4a/	16dd\LL	.	.	.	.	4dd\	4ff#\
.	.	.	16dd\	.	.	.	.	.	.
8AA/J	.	.	16a\	.	.	.	.	.	.
.	.	.	16a\JJ	.	.	.	.	.	.
=13	=13	=13	=13	=13	=13	=13	=13	=13	=13
8AA/L	7	16ee\LL	16gg\LL	4e\	-cem	4gg\	-cem	4ee\	4gg\
.	.	16ee\	16gg\	.	.	.	.	.	.
8AA/	.	16cc#\	16ee\	.	.	.	.	.	.
.	.	16cc#\JJ	16ee\JJ	.	.	.	.	.	.
8AA/	.	4a/	16cc#\LL	8r	.	8r	.	4a/	4ee\
.	.	.	16cc#\	.	.	.	.	.	.
!	!	!	!	!	!LO:SIC:v:o=do-	!	!	!	!
8AA/J	.	.	16a\	8A\	da	8ee\	da	.	.
.	.	.	16a\JJ	.	.	.	.	.	.
!	!	!	!	!	!LO:SIC:v:o=-na	!	!	!	!
8D\L	.	4dd\	8ff#\L	8d\	pa-	8ff#\	pa-	4dd\	4ff#\
!	!	!	!	!	!LO:SIC:v:o=no-	!	!	!	!
8F#\	.	.	8dd\J	8F#\	-cem	8dd\	-cem	.	.
!	!	!	!	!	!LO:SIC:v:o=-bis	!	!	!	!
8G\	.	4cc#\	4ee\	8G\L	pa-	4ee\	pa-	4a/	4ee\
!	!	!	!	!	!LO:MO:mod=.	!	!	!	!
8A\J	.	.	.	8A\J	pa-	.	.	.	.
=14	=14	=14	=14	=14	=14	=14	=14	=14	=14
!	!	!	!	!	!LO:SIC:o=-cem	!	!LO:SIC:o=-cem	!	!
8d|\L	.	8dd\L	8dd\L	4D/	-cem.	4dd\	-cem.	4f#/	4dd\
16c#|\L	.	16cc#\L	16cc#\L	.	.	.	.	.	.
16B|\JJ	.	16b\JJ	16b\JJ	.	.	.	.	.	.
!	!	!	!LO:LB:g=original	!	!	!	!	!	!
8A|\L	.	8a/L	8a/L	4r	.	4r	.	4r	4r
8G|\J	.	8g/J	8g/J	.	.	.	.	.	.
!	!	!	!	!	!	!	!	!	!LO:LB:g=original
8F#|\L	.	8f#/L	8f#/L	2r	.	2r	.	4r	4r
8D|\J	.	8d/J	8d/J	.	.	.	.	.	.
4r	.	8r	8r	.	.	.	.	8r	8r
.	.	8dd\	8ff#\	.	.	.	.	8dd\	8ff#\
!	!	!	!	!	!	!	!	!LO:LB:g=original	!
=15	=15	=15	=15	=15	=15	=15	=15	=15	=15
*	*	*Xtuplet	*	*	*	*	*	*	*
!	!	!	!	!	!	!LO:TX:a:mod= :t=3:note=łuk nad 3	!	!	!
!	!	!	!	!LO:TX:a:mod= :t=3:note=łuk nad 3	!	!	!	!	!
2r	.	8cc#\	8ee\	0r	.	0r	.	8a/	8ee\
.	.	4cc#\	4ee\	.	.	.	.	4a/	4ee\
!	!	!	!LO:TUP:a	!	!	!	!	!	!
.	.	24dd\LL	24ff#\LL	.	.	.	.	8dd\	8ff#\
.	.	24cc#\	24ee\	.	.	.	.	.	.
.	.	24dd\JJ	24ff#\JJ	.	.	.	.	.	.
4r	.	4ee\	4gg\	.	.	.	.	4ee\	4gg\
8r	.	16r	16r	.	.	.	.	4r	4r
.	.	16ee\LL	16gg\LL	.	.	.	.	.	.
8A\	7	16dd\	16ff#\	.	.	.	.	.	.
.	.	16cc#\JJ	16ee\JJ	.	.	.	.	.	.
*	*	*tuplet	*	*	*	*	*	*	*
=16	=16	=16	=16	=16	=16	=16	=16	=16	=16
4d\	.	4dd\	8ff#\L	.	.	.	.	4dd\	4ff#\
.	.	.	16ee\L	.	.	.	.	.	.
.	.	.	16dd\JJ	.	.	.	.	.	.
4A\	.	4cc#\	4ee\	.	.	.	.	4a/	4ee\
8D\L	.	8dd\L	8dd\L	.	.	.	.	8dd/L	8dd/L
!	!	!	!	!	!	!	!	!LO:SIC:v:o=16a/L	!LO:SIC:v:o=16a/L
8B\	.	8b\	8b\	.	.	.	.	16bL	16bL
!	!	!	!	!	!	!	!	!LO:SIC:v:o=16a/JJ	!LO:SIC:v:o=16a/JJ
.	.	.	.	.	.	.	.	16bJJ	16bJJ
!	!	!	!	!	!	!	!	!LO:SIC:v:o=8f#/L	!LO:SIC:v:o=8f#/L
8G\	.	8g\	8g\	.	.	.	.	8gL	8gL
!	!	!	!	!	!	!	!	!LO:SIC:v:o=8f#/J	!LO:SIC:v:o=8f#/J
8A\J	.	8a\J	8a\J	.	.	.	.	8aJ	8aJ
=17	=17	=17	=17	=17	=17	=17	=17	=17	=17
4D\	.	4ff# 4a 4d/	4ff# 4a 4d/	1r	.	1r	.	4d/	4d/
4r	.	4r	4r	.	.	.	.	4r	4r
2r	.	2r	2r	.	.	.	.	2r	2r
!LO:TX:b:i:mod= :t=Laus Deo	!	!LO:TX:b:i:mod= :t=Laus Deo	!LO:TX:b:i:mod= :t=Laus Deo	!LO:TX:a:i:mod= :t=Laus Deo	!	!LO:TX:b:i:mod= :t=Laus Deo	!	!LO:TX:b:i:mod= :t=Laus Deo	!LO:TX:a:i:mod= :t=Laus Deo
==	==	==	==	==	==	==	==	==	==
*-	*-	*-	*-	*-	*-	*-	*-	*-	*-
!!!system-decoration: [(bras)][vox][(str)]<klav>
!!!filter-modern: shed -k -e "s/([#-])[X]/$1/g; s/[n]/$1/g" | shed -e "s/TX(.*):t=P:/tx$1:t=P:/LG; s/^(X?)tuplet$/$1TUPLET/I" | shed -k -e "s/:TUP:/:tup:/L" | sic -sq | modori -m | autostem -r | tie -s | humtr -p
!!!RDF**kern: > = above
!!!RDF**kern: < = below
!!!RDF**kern: | = vertical stroke
!!!ENC: Berenika Jozajtis
!!!END: 2020-05-27
!!!EED: Wojciech Jakubiak-Danek
!!!EEV: 2020-12-01
!!!EED2: Andrzej Kubiczek
!!!EEV2: 2023-09-03
!!!ENC-modern: Andrzej Kubiczek
!!!END-modern: 2023-09-03
